server/api/resources/providerLogos/azure-42.svg

<?xml version="1.0" encoding="UTF-8"?>
<svg width="105px" height="42px" viewBox="0 0 105 42" version="1.1" xmlns="http://www.w3.org/2000/svg" xmlns:xlink="http://www.w3.org/1999/xlink">
    <g id="Symbols" stroke="none" stroke-width="1" fill="none" fill-rule="evenodd">
        <g id="Provider/Azure/azure-42" fill="#616870">
            <path d="M16.2739242,20.8765871 L20.7727974,8.50836411 L35.546875,34.125 L8.12041067,34.125 L24.9162041,31.156582 L16.2739242,20.8765871 Z M9.04329065,15.4199659 L19.5950924,6.5625 L8.15240266,31.1122391 L8.15240266,31.0911235 L0,31.0911235 L9.04329065,15.4199659 Z M104.913602,23.4971499 L96.4884449,23.4971499 C96.4104341,24.5730741 96.8004877,25.6489982 97.5805949,26.4943672 C98.3607021,27.1860328 99.3748414,27.6471431 100.388981,27.5702914 C101.715163,27.5702914 103.041345,27.1091811 104.055484,26.2638121 L104.055484,28.0314018 C102.807313,28.7999191 101.40312,29.2610294 99.9209164,29.1841777 C98.4387128,29.2610294 96.9565092,28.6462156 95.9423698,27.5702914 C94.9282305,26.2638121 94.3821555,24.7267775 94.5381769,23.1128913 C94.5381769,22.0369671 94.7722091,20.8841912 95.2402734,19.8851187 C95.7083377,18.962898 96.3324234,18.1943807 97.268552,17.6564186 C98.1266699,17.1184566 99.0627985,16.8879014 100.076938,16.8879014 C101.40312,16.8110496 102.729302,17.3490117 103.665431,18.3480842 C104.601559,19.5008601 105.069624,21.0378946 104.991613,22.4980774 L104.913602,23.4971499 Z M102.963334,21.9601154 C103.041345,21.0378946 102.729302,20.1925256 102.183227,19.4240084 C101.637152,18.8091945 100.857045,18.5017876 99.9989271,18.5017876 C99.1408093,18.5017876 98.2826914,18.8091945 97.7366163,19.4240084 C97.1125306,20.1156739 96.6444663,20.9610429 96.5664556,21.8832636 L102.963334,21.9601154 Z M93.3680162,19.0397497 C92.8999519,18.7323428 92.4318876,18.6554911 91.8858125,18.6554911 C91.0276946,18.6554911 90.2475875,19.1166015 89.8575339,19.808267 C89.3114589,20.7304877 88.999416,21.8064119 89.0774267,22.8054843 L89.0774267,28.7999191 L87.2051695,28.7999191 L87.2051695,17.1184566 L89.0774267,17.1184566 L89.0774267,19.5008601 L89.1554374,19.5008601 C89.3894696,18.8091945 89.7795232,18.117529 90.3255982,17.5795669 C91.1837161,16.8879014 92.2758661,16.6573462 93.3680162,17.0416048 L93.3680162,19.0397497 Z M83.3826443,28.9536225 L81.5103871,28.9536225 L81.5103871,27.1091811 L81.4323764,27.1091811 C80.73028,28.4925121 79.326087,29.2610294 77.7658727,29.2610294 C74.9574869,29.2610294 73.4752832,27.5702914 73.4752832,24.2656672 L73.4752832,17.27216 L75.3475405,17.27216 L75.3475405,24.035112 C75.3475405,26.4943672 76.2836691,27.7239949 78.233937,27.7239949 C79.0920549,27.7239949 79.9501728,27.416588 80.4962478,26.7249224 C81.1203335,25.9564052 81.4323764,25.0341844 81.4323764,24.1119637 L81.4323764,17.3490117 L83.3046336,17.3490117 L83.3826443,28.9536225 Z M71.2909831,17.7332704 L64.2700186,27.3397362 L71.2909831,27.3397362 L71.2909831,28.8767708 L61.4616328,28.8767708 L61.4616328,28.3388087 L68.4825973,18.8091945 L62.0857185,18.8091945 L62.0857185,17.27216 L71.2909831,17.27216 L71.2909831,17.7332704 Z M60.7595363,28.9536225 L58.5752362,28.9536225 L56.7809897,24.3425189 L49.7600252,24.3425189 L48.1218001,28.9536225 L45.9375,28.9536225 L52.2563681,12.5073529 L54.2846468,12.5073529 L60.7595363,28.9536225 Z M56.2349147,22.5749292 L53.5825503,15.581422 C53.5045396,15.1971634 53.3485182,14.8129047 53.2705074,14.4286461 L53.1924967,14.4286461 L52.9584646,15.581422 L50.3061002,22.5749292 L56.2349147,22.5749292 Z" id="Combined-Shape"></path>
        </g>
    </g>
</svg>

<?xml version="1.0" encoding="UTF-8" standalone="no"?>
<svg xmlns:dc="http://purl.org/dc/elements/1.1/" xmlns:cc="http://creativecommons.org/ns#" xmlns:rdf="http://www.w3.org/1999/02/22-rdf-syntax-ns#" xmlns:svg="http://www.w3.org/2000/svg" xmlns="http://www.w3.org/2000/svg" xmlns:xlink="http://www.w3.org/1999/xlink" id="svg2844" version="1.1" viewBox="0 0 105 42" height="42px" width="105px">
  <defs id="defs2848">
    <linearGradient id="e399c19f-b68f-429d-b176-18c2117ff73c" x1="-1032.172" x2="-1059.213" y1="145.312" y2="65.426" gradientTransform="matrix(1,0,0,-1,1075,158)" gradientUnits="userSpaceOnUse">
      <stop offset="0" stop-color="#545454" id="stop3413" />
      <stop offset="1" stop-color="#6C6C6C" id="stop3415" />
    </linearGradient>
    <linearGradient id="ac2a6fc2-ca48-4327-9a3c-d4dcc3256e15" x1="-1023.725" x2="-1029.98" y1="108.083" y2="105.968" gradientTransform="matrix(1,0,0,-1,1075,158)" gradientUnits="userSpaceOnUse">
      <stop offset="0" stop-opacity=".3" id="stop3418" />
      <stop offset=".071" stop-opacity=".2" id="stop3420" />
      <stop offset=".321" stop-opacity=".1" id="stop3422" />
      <stop offset=".623" stop-opacity=".05" id="stop3424" />
      <stop offset="1" stop-opacity="0" id="stop3426" />
    </linearGradient>
    <linearGradient id="a7fee970-a784-4bb1-af8d-63d18e5f7db9" x1="-1027.165" x2="-997.482" y1="147.642" y2="68.561" gradientTransform="matrix(1,0,0,-1,1075,158)" gradientUnits="userSpaceOnUse">
      <stop offset="0" stop-color="#BDBDBD" id="stop3429" />
      <stop offset="1" stop-color="#949494" id="stop3431" />
    </linearGradient>
    <linearGradient id="e399c19f-b68f-429d-b176-18c2117ff73c-2" x1="-1032.172" x2="-1059.213" y1="145.312" y2="65.426" gradientTransform="matrix(1,0,0,-1,1075,158)" gradientUnits="userSpaceOnUse">
      <stop offset="0" stop-color="#616870" id="stop3468" />
      <stop offset="1" stop-color="#616870" id="stop3470" />
    </linearGradient>
    <linearGradient id="a7fee970-a784-4bb1-af8d-63d18e5f7db9-0" x1="-1027.165" x2="-997.482" y1="147.642" y2="68.561" gradientTransform="matrix(1,0,0,-1,1075,158)" gradientUnits="userSpaceOnUse">
      <stop offset="0" stop-color="#616870" id="stop3484" />
      <stop offset="1" stop-color="#616870" id="stop3486" />
    </linearGradient>
    <linearGradient y2="105.968" x2="-1029.98" y1="108.083" x1="-1023.725" gradientTransform="matrix(1,0,0,-1,1075,158)" gradientUnits="userSpaceOnUse" id="linearGradient3517" xlink:href="#ac2a6fc2-ca48-4327-9a3c-d4dcc3256e15" />
  </defs>
  <g fill-rule="evenodd" fill="none" stroke-width="1" stroke="none" id="Symbols">
    <g fill="#616870" id="Provider/Azure/azure-42">
      <path id="Combined-Shape" d="m 104.9136,23.49715 h -8.425155 c -0.07801,1.075924 0.312043,2.151848 1.09215,2.997217 0.780107,0.691666 1.794246,1.152776 2.808385,1.075924 1.32618,0 2.65237,-0.46111 3.6665,-1.306479 v 1.76759 c -1.24817,0.768517 -2.65236,1.229627 -4.134564,1.152776 -1.482203,0.07685 -2.964407,-0.537962 -3.978546,-1.613887 -1.01414,-1.306479 -1.560215,-2.843514 -1.404193,-4.4574 0,-1.075924 0.234032,-2.2287 0.702096,-3.227772 0.468065,-0.922221 1.09215,-1.690738 2.028279,-2.2287 0.858118,-0.537962 1.794246,-0.768518 2.808388,-0.768518 1.32618,-0.07685 2.65236,0.461111 3.58849,1.460183 0.93613,1.152776 1.40419,2.689811 1.32618,4.149993 z m -1.95027,-1.537035 c 0.078,-0.92222 -0.23403,-1.767589 -0.7801,-2.536107 -0.54608,-0.614814 -1.32618,-0.92222 -2.184303,-0.92222 -0.858118,0 -1.716236,0.307406 -2.262311,0.92222 -0.624085,0.691666 -1.09215,1.537035 -1.17016,2.459256 z M 93.368016,19.03975 c -0.468064,-0.307407 -0.936128,-0.384259 -1.482204,-0.384259 -0.858117,0 -1.638225,0.461111 -2.028278,1.152776 -0.546075,0.922221 -0.858118,1.998145 -0.780107,2.997217 v 5.994435 H 87.205169 V 17.118457 h 1.872258 v 2.382403 h 0.07801 c 0.234033,-0.691666 0.624086,-1.383331 1.170161,-1.921293 0.858118,-0.691666 1.950268,-0.922221 3.042418,-0.537962 z m -9.985372,9.913873 h -1.872257 v -1.844442 h -0.07801 c -0.702096,1.383331 -2.106289,2.151848 -3.666503,2.151848 -2.808386,0 -4.29059,-1.690738 -4.29059,-4.995362 V 17.27216 h 1.872257 v 6.762952 c 0,2.459255 0.936129,3.688883 2.886397,3.688883 0.858118,0 1.716236,-0.307407 2.262311,-0.999073 0.624085,-0.768517 0.936128,-1.690738 0.936128,-2.612958 v -6.762952 h 1.872258 z M 71.290983,17.73327 64.270019,27.339736 h 7.020964 v 1.537035 h -9.82935 v -0.537962 l 7.020964,-9.529615 H 62.085718 V 17.27216 h 9.205265 z M 60.759536,28.953623 h -2.1843 L 56.78099,24.342519 H 49.760025 L 48.1218,28.953623 h -2.1843 l 6.318868,-16.44627 h 2.028279 z M 56.234915,22.574929 53.58255,15.581422 c -0.07801,-0.384259 -0.234032,-0.768517 -0.312043,-1.152776 h -0.07801 l -0.234032,1.152776 -2.652365,6.993507 z" />
    </g>
  </g>
  <g transform="matrix(0.33222854,0,0,0.33222854,-1.217182,4.3424059)" id="g3515">
    <path fill="url(#e399c19f-b68f-429d-b176-18c2117ff73c)" d="m 33.338,6.544 h 26.038 l -27.03,80.087 a 4.152,4.152 0 0 1 -3.933,2.824 H 8.149 A 4.145,4.145 0 0 1 4.221,83.985 L 29.404,9.368 a 4.152,4.152 0 0 1 3.934,-2.825 z" id="path3491" style="fill:url(#e399c19f-b68f-429d-b176-18c2117ff73c-2)" />
    <path fill="#616870" d="M 71.175,60.261 H 29.885 A 1.911,1.911 0 0 0 28.58,63.57 l 26.532,24.764 a 4.171,4.171 0 0 0 2.846,1.121 h 23.38 z" id="path3493" />
    <path style="fill:url(#linearGradient3517)" fill="url(#ac2a6fc2-ca48-4327-9a3c-d4dcc3256e15)" d="M 33.338,6.544 A 4.118,4.118 0 0 0 29.395,9.423 L 4.252,83.917 a 4.14,4.14 0 0 0 3.908,5.538 h 20.787 a 4.443,4.443 0 0 0 3.41,-2.9 l 5.014,-14.777 17.91,16.705 a 4.237,4.237 0 0 0 2.666,0.972 H 81.24 L 71.024,60.261 41.243,60.268 59.47,6.544 Z" id="path3495" />
    <path fill="url(#a7fee970-a784-4bb1-af8d-63d18e5f7db9)" d="M 66.595,9.364 A 4.145,4.145 0 0 0 62.667,6.544 H 33.648 a 4.146,4.146 0 0 1 3.928,2.82 l 25.184,74.62 a 4.146,4.146 0 0 1 -3.928,5.472 h 29.02 a 4.146,4.146 0 0 0 3.927,-5.472 z" id="path3497" style="fill:url(#a7fee970-a784-4bb1-af8d-63d18e5f7db9-0)" />
  </g>
</svg>
